src/assets/duotone/GooglePlay.svg

<svg width="24" height="24" viewBox="0 0 24 24"  xmlns="http://www.w3.org/2000/svg">
<path opacity="0.4" d="M21.4002 12.9508L16.8902 15.2108L13.7002 12.0208L16.9202 8.80078L21.4002 11.0508C22.1902 11.4408 22.1902 12.5608 21.4002 12.9508Z" />
<path d="M16.9203 8.79961L13.7003 12.0196L4.03027 2.34961L16.9203 8.79961Z" />
<path opacity="0.4" d="M13.7 12.0202L4.12 21.6003L3.55 21.8902C2.83 22.2402 2 21.7302 2 20.9302V3.07025C2 2.27025 2.83 1.76024 3.55 2.11024L4.03 2.35025L13.7 12.0202Z" />
<path d="M16.8901 15.2095L4.12012 21.5995L13.7001 12.0195L16.8901 15.2095Z" />
</svg>

<?xml version="1.0" encoding="UTF-8"?>
<svg width="24" height="24" viewBox="0 0 24 24" xmlns="http://www.w3.org/2000/svg">
 <path d="m21.4 12.951-4.51 2.26-3.19-3.19 3.22-3.22 4.48 2.25c0.79 0.39 0.79 1.51 0 1.9z" opacity=".4"/>
 <path d="m16.92 8.7996-3.22 3.22-9.67-9.67 12.89 6.45z"/>
 <path d="m13.7 12.02-9.58 9.5801-0.57 0.2899c-0.72 0.35-1.55-0.16-1.55-0.96v-17.86c0-0.8 0.83-1.31 1.55-0.96001l0.48 0.24001 9.67 9.67z" opacity=".4"/>
 <path d="m16.89 15.21-12.77 6.39 9.58-9.58 3.19 3.19z"/>
</svg>
